tools/download-figma-icons/icons/solid/socket.svg

<svg width="24" height="24" viewBox="0 0 24 24" fill="none" xmlns="http://www.w3.org/2000/svg">
<path fill-rule="evenodd" clip-rule="evenodd" d="M16.5 14.2545C15.255 14.2545 14.25 13.2473 14.25 12C14.25 10.7528 15.255 9.7455 16.5 9.7455C17.745 9.7455 18.75 10.7528 18.75 12C18.75 13.2473 17.745 14.2545 16.5 14.2545ZM7.5 14.2545C6.255 14.2545 5.25 13.2473 5.25 12C5.25 10.7528 6.255 9.7455 7.5 9.7455C8.745 9.7455 9.75 10.7528 9.75 12C9.75 13.2473 8.745 14.2545 7.5 14.2545ZM12.7425 0C12.75 0.03 12.75 0.0675 12.75 0.10575V3.60675C12.75 4.0275 12.4125 4.35825 12 4.35825C11.5875 4.35825 11.25 4.0275 11.25 3.60675V0.10575C11.25 0.0675 11.25 0.03 11.2575 0C4.9725 0.38325 0 5.6055 0 12C0 18.387 4.965 23.61 11.25 24V20.9265C11.25 20.514 11.5875 20.1757 12 20.1757C12.4125 20.1757 12.75 20.514 12.75 20.9265V24C19.035 23.61 24 18.387 24 12C24 5.6055 19.0275 0.38325 12.7425 0Z" fill="black"/>
</svg>

<svg width="24" height="24" viewBox="0 0 24 24" fill="none" xmlns="http://www.w3.org/2000/svg"><path fill-rule="evenodd" clip-rule="evenodd" d="M16.5 14.255A2.25 2.25 0 0 1 14.25 12a2.25 2.25 0 1 1 4.5 0 2.25 2.25 0 0 1-2.25 2.255Zm-9 0A2.25 2.25 0 0 1 5.25 12a2.25 2.25 0 1 1 4.5 0 2.25 2.25 0 0 1-2.25 2.255ZM12.742 0a.44.44 0 0 1 .008.106v3.5a.749.749 0 0 1-.75.752.748.748 0 0 1-.75-.751V.106c0-.038 0-.076.008-.106C4.973.383 0 5.606 0 12c0 6.387 4.965 11.61 11.25 12v-3.073c0-.413.338-.751.75-.751s.75.338.75.75V24C19.035 23.61 24 18.387 24 12 24 5.606 19.027.383 12.742 0Z" fill="currentColor"/></svg>
